X:1039
T:BAL DE BROONS
Z: Yves BELOTTEAU
M:4/4
L:1/4
Q:1/4=60
K:C
|Gccd cBAB/2c/2|ddAB/2c/2 ddG2|Gccd cBAB/2c/2|ddAB/2c/2 ddG2|
c2ec ecec|AB/2c/2dd AB/2c/2dd|G2ec ecec|AB/2c/2dd AB/2c/2dd|
G2c2|
